images/Cyprus_warning_road_sign_child.svg

<svg width="361" height="319" fill="none" xmlns="http://www.w3.org/2000/svg"><g clip-path="url(#a)"><path fill-rule="evenodd" clip-rule="evenodd" d="M23.978 318.1c-8.586 0-16.457-4.522-20.688-11.906a23.93 23.93 0 0 1 0-23.875L159.446 11.975A23.766 23.766 0 0 1 180.04.1h.187a23.766 23.766 0 0 1 20.594 11.875l156.157 270.344a23.933 23.933 0 0 1 0 23.875c-4.231 7.384-12.102 11.906-20.688 11.906H23.978z" fill="#EC1D24"/><path fill-rule="evenodd" clip-rule="evenodd" d="M37.755 286.283h284.758L180.134 39.806 37.755 286.284z" fill="#fff"/><path d="M296 278v-5H64v5h232zM167.842 136.86c0 6.379-4.32 11.752-10.2 13.366l.937 2.805 6.947 9.24 26.632 19.636 6.947-8.085.282-.094a10.364 10.364 0 0 1-3.755-7.992c0-5.741 4.665-10.395 10.421-10.395 5.755 0 10.421 4.654 10.421 10.395 0 4.691-3.115 8.657-7.394 9.95l.446.446 4.632 9.24L235 201.543v6.93l-20.842-9.24v41.581l5.789 23.101h8.106v6.93h-16.211l-2.316-8.085-5.789-21.946h-1.158l-3.474 15.015-1.158 6.931 4.632 4.62-3.474 4.62-10.421-8.085 3.474-15.016v-47.356l-10.421 18.48h-4.632v-8.085l11.579-23.101-24.316-11.55 1.158 51.977 5.79 24.255 4.631 10.396h8.106v6.93h-19.685l-13.894-42.736L147 262.76l3.474 3.465V272l-17.369-5.775 3.474-13.861 1.158-57.752s-12.737 0-12.737-18.48c0-12.706 12.737-21.946 12.737-21.946l11.579-3.465.973-.486c-5.899-1.601-10.236-6.983-10.236-13.375 0-7.654 6.221-13.86 13.894-13.86 7.674 0 13.895 6.206 13.895 13.86z" fill="#000"/></g><defs><clipPath id="a"><path fill="#fff" d="M0 0h360.268v318.2H0z"/></clipPath></defs></svg>

<svg width="361" height="319" viewBox="0 0 361 319" fill="none" xmlns="http://www.w3.org/2000/svg">
<g clip-path="url(#clip0_1_32)">
<path fill-rule="evenodd" clip-rule="evenodd" d="M23.9776 318.1C15.3921 318.1 7.52112 313.578 3.2901 306.194C-0.963359 298.82 -0.963359 289.715 3.2901 282.319L159.446 11.975C163.722 4.60164 171.544 0.100052 180.04 0.100052C180.071 0.100052 180.103 0.0999318 180.134 0.100052C180.165 0.0999318 180.196 0.100052 180.227 0.100052C188.723 0.100052 196.545 4.60163 200.821 11.975L356.978 282.319C361.231 289.715 361.231 298.82 356.978 306.194C352.747 313.578 344.876 318.1 336.29 318.1H23.9776Z" fill="#EC1D24"/>
<path fill-rule="evenodd" clip-rule="evenodd" d="M37.755 286.283H322.513L180.134 39.8065L37.755 286.283Z" fill="white"/>
<path d="M296 278V273H64V278H296Z" fill="black"/>
<path d="M167.842 136.86C167.842 143.239 163.522 148.612 157.642 150.226L158.579 153.031L165.526 162.271L192.158 181.907L199.105 173.822L199.387 173.728C197.092 171.821 195.632 168.949 195.632 165.736C195.632 159.995 200.297 155.341 206.053 155.341C211.808 155.341 216.474 159.995 216.474 165.736C216.474 170.427 213.359 174.393 209.08 175.686L209.526 176.132L214.158 185.372L235 201.543V208.473L214.158 199.233V240.814L219.947 263.915H228.053V270.845L211.842 270.845L209.526 262.76L203.737 240.814H202.579L199.105 255.829L197.947 262.76L202.579 267.38L199.105 272L188.684 263.915L192.158 248.899V201.543L181.737 220.023H177.105V211.938L188.684 188.837L164.368 177.287L165.526 229.264L171.316 253.519L175.947 263.915H184.053V270.845H164.368L150.474 228.109L147 262.76L150.474 266.225V272L133.105 266.225L136.579 252.364L137.737 194.612C137.737 194.612 125 194.612 125 176.132C125 163.426 137.737 154.186 137.737 154.186L149.316 150.721L150.289 150.235C144.39 148.634 140.053 143.252 140.053 136.86C140.053 129.206 146.274 123 153.947 123C161.621 123 167.842 129.206 167.842 136.86Z" fill="black"/>
</g>
<defs>
<clipPath id="clip0_1_32">
<rect width="360.268" height="318.2" fill="white"/>
</clipPath>
</defs>
</svg>
